X: 474
M: C|
L: 1/8
K: Gm
|: d2e2 |\
f2e2 f2g2 | f4 f2ed | c2d2 e2d2 | c4 dcde |\
d4 c4 | B4 G2A2 | B2G2 B2c2 | d4 d2cB |

